X:1
T:Title
%%score { ( 1 2 ) | ( 3 4 ) }
L:1/8
Q:1/4=100
M:4/4
K:F
V:1 treble nm="Grand Piano"
V:2 treble 
V:3 bass 
V:4 bass 
V:1
 F2 F>_E ^C>E [_A,F]2 | [C_E]>F [CE]>^C [A,=C]2 [A,E]2 | %2
w: ????~??????? * * * * *||
 [B,^C]>_E C>=C[K:bass] [^F,B,]>C[K:treble] ^C>E | z4 F4 | F2 z2 z4 | %5
w: |||
 [C_E]>F [CE]>^C [A,=C]2 [A,E]2 | [B,^C]>_E C>=C[K:bass] [^F,B,]>C[K:treble] ^C>E | %7
w: ||
 F2 z2[K:bass] B,4 | [^CB]>A [CB]>c [F^c]>=c [CB]2 | [^CB]>A [CB]>c [F^c]>=c [CB]2 | %10
w: |||
 [^CB]>A [CB]>c [F^c]>=c [^F_e]>^c | [_Ec]8 | [CFA]>[FA] [FA]>[^CFB] [_EAc]>B [EA]2 | %13
w: |||
 [CFA]>[FA] [FA]>[^CFB] [_EAc]>B [FA]2 | [CFA]>[FA] [FA]>[^CFB] [_EAc]>B [FA^c]>[A=c] | [^CFB]8 | %16
w: |||
 [^CB]>A [CB]>c [F^c]>=c [CB]2 | [^CB]>A [CB]>c [F^c]>=c [CB]2 | %18
w: ||
 [^CB]>A [CB]>c [F^c]>=c [^F_e]>^c | [_Ec]8 | [CFA]>[FA] [FA]>[^CFB] [_EAc]>B [EA]2 | %21
w: |||
 [CFA]>[FA] [FA]>[^CFB] [_EAc]>B [FA]2 | [CFA]>[FA] [FA]>[^CFB] [_EAc]>B [FA^c]>[A=c] | %23
w: ||
[M:9/8] [^CFB]8- [CFB] |[M:4/4] F2 F>_E ^C>E [_A,F]2 | [C_E]>F [CE]>^C [A,=C]2 [A,E]2 | %26
w: |||
 [B,^C]>_E C>=C[K:bass] [^F,B,]>C[K:treble] ^C>E |[M:8/4] F>_E^C>=C[K:bass] z2 ^C,2 z8 |] %28
w: ||
V:2
 [B,^C]4 z4 | x8 | x4[K:bass] x2[K:treble] x2 | F>_E ^C>E z2 A,2 | %4
 [B,^C]2- [B,-C-F]>[B,C_E] C>E [_A,F]2 | x8 | x4[K:bass] x2[K:treble] x2 | %7
 ^C->[C_E] C>=C[K:bass] z2 ^C,2 | x8 | x8 | x8 | x8 | x8 | x8 | x8 | x8 | x8 | x8 | x8 | x8 | x8 | %21
 x8 | x8 |[M:9/8] x9 |[M:4/4] [B,^C]4 z4 | x8 | x4[K:bass] x2[K:treble] x2 | %27
[M:8/4] .^C4[K:bass] B,4 z8 |] %28
V:3
 z z/ ^F/ F,>C, [^C,_A,]2 F,2 | z z/ ^C/ z z/ B,/ z z/ C/ F,2 | z z/ C/ B,>_A, z z/ A,/ B,>C | %3
 [^C,_A,]2 [F,A,]2 =C,2 F,2 | z z/ ^F/ F,>C, [^C,_A,]2 F,2 | z z/ ^C/ z z/ B,/ z z/ C/ F,2 | %6
 z z/ C/ B,>_A, z z/ A,/ B,>C | B,,2 [F,A,]2 F,2 z2 | z z/ C/ z z/ _E/ z z/ E/ F,2 | %9
 z z/ C/ z z/ _E/ z z/ E/ F,2 | z z/ C/ z z/ _E/ z z/ E/ z z/[K:treble] F/ | F,2 C2 A,2 C2 | %12
 z z/ C/ C>F, z z/ ^C/ =C2 | z z/ C/ C>F, z z/ ^C/ =C2 | z z/ C/ C>F, z z/ ^C/ z z/ _E/ | %15
 B,,2 ^C,2 F,2 B,2 | z z/ C/ z z/ _E/ z z/ E/ F,2 | z z/ C/ z z/ _E/ z z/ E/ F,2 | %18
 z z/ C/ z z/ _E/ z z/ E/ z z/[K:treble] F/ | F,2 C2 A,2 C2 | z z/ C/ C>F, z z/ ^C/ =C2 | %21
 z z/ C/ C>F, z z/ ^C/ =C2 | z z/ C/ C>F, z z/ ^C/ z z/ _E/ |[M:9/8] B,,2 ^C,- C, F,2 B,3 | %24
[M:4/4] z z/ ^F/ F,>C, [^C,_A,]2 F,2 | z z/ ^C/ z z/ B,/ z z/ C/ F,2 | %26
 z z/ C/ B,>_A, z z/ A,/ B,>C |[M:8/4] B,,2 [F,A,]2 .[B,,F,]4 z8 |] %28
V:4
 B,,2 z2 z4 | _A,,2 _E,2 F,,2 z2 | ^F,,2 [B,,^C,]2 F,,2 [B,,C,]2 | x8 | B,,2 z2 z4 | %5
 _A,,2 _E,2 F,,2 z2 | ^F,,2 [B,,^C,]2 F,,2 [B,,C,]2 | z4 B,,4 | B,,2 F,2 B,,2 z2 | %9
 B,,2 F,2 B,,2 z2 | B,,2 F,2 B,,2 F,2[K:treble] | x8 | F,4 F,4 | F,4 F,4 | F,4 F,2 F,2 | x8 | %16
 B,,2 F,2 B,,2 z2 | B,,2 F,2 B,,2 z2 | B,,2 F,2 B,,2 F,2[K:treble] | x8 | F,4 F,4 | F,4 F,4 | %22
 F,4 F,2 F,2 |[M:9/8] x9 |[M:4/4] B,,2 z2 z4 | _A,,2 _E,2 F,,2 z2 | ^F,,2 [B,,^C,]2 F,,2 [B,,C,]2 | %27
[M:8/4] x16 |] %28

